app/assets/images/icons/active/link.svg

<svg width="32" height="232" viewBox="0 0 32 232" xmlns="http://www.w3.org/2000/svg" xmlns:sketch="http://www.bohemiancoding.com/sketch/ns"><title>link</title><g sketch:type="MSPage" fill="none"><path d="M28.551 127.793l-3.845-3.845c-.612-.613-1.424-.948-2.289-.948-.866 0-1.676.335-2.289.948l-5.707 5.707c-1.262 1.263-1.262 3.316 0 4.578l.722.724-.689.688-.721-.725c-.613-.612-1.424-.947-2.289-.947-.865 0-1.676.335-2.289.947l-5.707 5.707c-.613.614-.948 1.424-.948 2.289 0 .865.335 1.68.948 2.289l3.846 3.846c.611.611 1.423.949 2.287.949.865 0 1.677-.338 2.289-.949l5.709-5.707c1.262-1.262 1.262-3.314 0-4.578l-.637-.637.687-.685.637.634c.612.612 1.424.95 2.287.95.867 0 1.678-.338 2.291-.95l5.707-5.708c.612-.61.949-1.424.949-2.29 0-.863-.337-1.675-.949-2.287zm-13.103 13.103c.088.089.088.231 0 .316l-5.709 5.708c-.055.055-.115.069-.158.069-.041 0-.104-.014-.158-.069l-3.846-3.842c-.055-.056-.066-.119-.066-.162 0-.041.011-.101.066-.158l5.709-5.708c.053-.055.117-.065.158-.065.041 0 .103.01.158.065l.723.722-3.578 3.58c-.649.644-.649 1.693 0 2.341l.144.145c.648.646 1.694.646 2.342 0l3.578-3.58.637.638zm10.973-10.657l-5.709 5.709c-.053.054-.116.068-.159.068-.041 0-.103-.014-.158-.068l-.637-.635 3.409-3.406c.644-.649.644-1.696 0-2.342l-.147-.145c-.646-.649-1.694-.649-2.34 0l-3.408 3.406-.721-.722c-.088-.088-.088-.231 0-.319l5.707-5.707c.055-.055.118-.066.159-.066.043 0 .104.011.158.066l3.846 3.844c.054.056.066.117.066.158 0 .043-.012.106-.066.159zm0 0" fill="#206FAC" sketch:type="MSShapeGroup"/><path d="M28.551 87.793l-3.845-3.845c-.612-.613-1.424-.948-2.289-.948-.866 0-1.676.335-2.289.948l-5.707 5.707c-1.262 1.263-1.262 3.316 0 4.578l.722.724-.689.688-.721-.725c-.613-.612-1.424-.947-2.289-.947-.865 0-1.676.335-2.289.947l-5.707 5.707c-.613.614-.948 1.424-.948 2.289 0 .865.335 1.68.948 2.289l3.846 3.846c.611.611 1.423.949 2.287.949.865 0 1.677-.338 2.289-.949l5.709-5.707c1.262-1.262 1.262-3.314 0-4.578l-.637-.637.687-.685.637.634c.612.612 1.424.95 2.287.95.867 0 1.678-.338 2.291-.95l5.707-5.708c.612-.61.949-1.424.949-2.29 0-.863-.337-1.675-.949-2.287zm-13.103 13.103c.088.089.088.231 0 .316l-5.709 5.708c-.055.055-.115.069-.158.069-.041 0-.104-.014-.158-.069l-3.846-3.842c-.055-.056-.066-.119-.066-.162 0-.041.011-.101.066-.158l5.709-5.708c.053-.055.117-.065.158-.065.041 0 .103.01.158.065l.723.722-3.578 3.58c-.649.644-.649 1.693 0 2.341l.144.145c.648.646 1.694.646 2.342 0l3.578-3.58.637.638zm10.973-10.657l-5.709 5.709c-.053.054-.116.068-.159.068-.041 0-.103-.014-.158-.068l-.637-.635 3.409-3.406c.644-.649.644-1.696 0-2.342l-.147-.145c-.646-.649-1.694-.649-2.34 0l-3.408 3.406-.721-.722c-.088-.088-.088-.231 0-.319l5.707-5.707c.055-.055.118-.066.159-.066.043 0 .104.011.158.066l3.846 3.844c.054.056.066.117.066.158 0 .043-.012.106-.066.159zm0 0" fill="#fff" sketch:type="MSShapeGroup"/><path d="M28.551 47.793l-3.845-3.845c-.612-.613-1.424-.948-2.289-.948-.866 0-1.676.335-2.289.948l-5.707 5.707c-1.262 1.263-1.262 3.316 0 4.578l.722.724-.689.688-.721-.725c-.613-.612-1.424-.947-2.289-.947-.865 0-1.676.335-2.289.947l-5.707 5.707c-.613.614-.948 1.424-.948 2.289 0 .865.335 1.68.948 2.289l3.846 3.846c.611.611 1.423.949 2.287.949.865 0 1.677-.338 2.289-.949l5.709-5.707c1.262-1.262 1.262-3.314 0-4.578l-.637-.637.687-.685.637.634c.612.612 1.424.95 2.287.95.867 0 1.678-.338 2.291-.95l5.707-5.708c.612-.61.949-1.424.949-2.29 0-.863-.337-1.675-.949-2.287zm-13.103 13.103c.088.089.088.231 0 .316l-5.709 5.708c-.055.055-.115.069-.158.069-.041 0-.104-.014-.158-.069l-3.846-3.842c-.055-.056-.066-.119-.066-.162 0-.041.011-.101.066-.158l5.709-5.708c.053-.055.117-.065.158-.065.041 0 .103.01.158.065l.723.722-3.578 3.58c-.649.644-.649 1.693 0 2.341l.144.145c.648.646 1.694.646 2.342 0l3.578-3.58.637.638zm10.973-10.657l-5.709 5.709c-.053.054-.116.068-.159.068-.041 0-.103-.014-.158-.068l-.637-.635 3.409-3.406c.644-.649.644-1.696 0-2.342l-.147-.145c-.646-.649-1.694-.649-2.34 0l-3.408 3.406-.721-.722c-.088-.088-.088-.231 0-.319l5.707-5.707c.055-.055.118-.066.159-.066.043 0 .104.011.158.066l3.846 3.844c.054.056.066.117.066.158 0 .043-.012.106-.066.159zm0 0" fill="#67737B" sketch:type="MSShapeGroup"/><path d="M28.551 7.793l-3.845-3.845c-.612-.613-1.424-.948-2.289-.948-.866 0-1.676.335-2.289.948l-5.707 5.707c-1.262 1.263-1.262 3.316 0 4.578l.722.724-.689.688-.721-.725c-.613-.612-1.424-.947-2.289-.947-.865 0-1.676.335-2.289.947l-5.707 5.707c-.613.614-.948 1.424-.948 2.289 0 .865.335 1.68.948 2.289l3.846 3.846c.611.611 1.423.949 2.287.949.865 0 1.677-.338 2.289-.949l5.709-5.707c1.262-1.262 1.262-3.314 0-4.578l-.637-.637.687-.685.637.634c.612.612 1.424.95 2.287.95.867 0 1.678-.338 2.291-.95l5.707-5.708c.612-.61.949-1.424.949-2.29 0-.863-.337-1.675-.949-2.287zm-13.103 13.103c.088.089.088.231 0 .316l-5.709 5.708c-.055.055-.115.069-.158.069-.041 0-.104-.014-.158-.069l-3.846-3.842c-.055-.056-.066-.119-.066-.162 0-.041.011-.101.066-.158l5.709-5.708c.053-.055.117-.065.158-.065.041 0 .103.01.158.065l.723.722-3.578 3.58c-.649.644-.649 1.693 0 2.341l.144.145c.648.646 1.694.646 2.342 0l3.578-3.58.637.638zm10.973-10.657l-5.709 5.709c-.053.054-.116.068-.159.068-.041 0-.103-.014-.158-.068l-.637-.635 3.409-3.406c.644-.649.644-1.696 0-2.342l-.147-.145c-.646-.649-1.694-.649-2.34 0l-3.408 3.406-.721-.722c-.088-.088-.088-.231 0-.319l5.707-5.707c.055-.055.118-.066.159-.066.043 0 .104.011.158.066l3.846 3.844c.054.056.066.117.066.158 0 .043-.012.106-.066.159zm0 0" fill="#3A434E" sketch:type="MSShapeGroup"/></g></svg>

<?xml version="1.0" encoding="UTF-8" standalone="no"?>
<svg width="32px" height="232px" viewBox="0 0 32 232" version="1.1" xmlns="http://www.w3.org/2000/svg" xmlns:xlink="http://www.w3.org/1999/xlink" xmlns:sketch="http://www.bohemiancoding.com/sketch/ns">
    <title>link</title>
    <description>Created with Sketch (http://www.bohemiancoding.com/sketch)</description>
    <defs></defs>
    <g id="Actions" stroke="none" stroke-width="1" fill="none" fill-rule="evenodd" sketch:type="MSPage">
        <path d="M28.551,127.793 L24.706,123.948 C24.094,123.335 23.282,123 22.417,123 C21.551,123 20.741,123.335 20.128,123.948 L14.421,129.655 C13.159,130.918 13.159,132.971 14.421,134.233 L15.143,134.957 L14.454,135.645 L13.733,134.92 C13.12,134.308 12.309,133.973 11.444,133.973 C10.579,133.973 9.768,134.308 9.155,134.92 L3.448,140.627 C2.835,141.241 2.5,142.051 2.5,142.916 C2.5,143.781 2.835,144.596 3.448,145.205 L7.294,149.051 C7.905,149.662 8.717,150 9.581,150 C10.446,150 11.258,149.662 11.87,149.051 L17.579,143.344 C18.841,142.082 18.841,140.03 17.579,138.766 L16.942,138.129 L17.629,137.444 L18.266,138.078 C18.878,138.69 19.69,139.028 20.553,139.028 C21.42,139.028 22.231,138.69 22.844,138.078 L28.551,132.37 C29.163,131.76 29.5,130.946 29.5,130.08 C29.5,129.217 29.163,128.405 28.551,127.793 C28.551,127.793 29.163,128.405 28.551,127.793 L28.551,127.793 L28.551,127.793 Z M15.448,140.896 C15.536,140.985 15.536,141.127 15.448,141.212 L9.739,146.92 C9.684,146.975 9.624,146.989 9.581,146.989 C9.54,146.989 9.477,146.975 9.423,146.92 L5.577,143.078 C5.522,143.022 5.511,142.959 5.511,142.916 C5.511,142.875 5.522,142.815 5.577,142.758 L11.286,137.05 C11.339,136.995 11.403,136.985 11.444,136.985 C11.485,136.985 11.547,136.995 11.602,137.05 L12.325,137.772 L8.747,141.352 C8.098,141.996 8.098,143.045 8.747,143.693 L8.891,143.838 C9.539,144.484 10.585,144.484 11.233,143.838 L14.811,140.258 L15.448,140.896 L15.448,140.896 L15.448,140.896 L15.448,140.896 Z M26.421,130.239 L20.712,135.948 C20.659,136.002 20.596,136.016 20.553,136.016 C20.512,136.016 20.45,136.002 20.395,135.948 L19.758,135.313 L23.167,131.907 C23.811,131.258 23.811,130.211 23.167,129.565 L23.02,129.42 C22.374,128.771 21.326,128.771 20.68,129.42 L17.272,132.826 L16.551,132.104 C16.463,132.016 16.463,131.873 16.551,131.785 L22.258,126.078 C22.313,126.023 22.376,126.012 22.417,126.012 C22.46,126.012 22.521,126.023 22.575,126.078 L26.421,129.922 C26.475,129.978 26.487,130.039 26.487,130.08 C26.487,130.123 26.475,130.186 26.421,130.239 L26.421,130.239 Z M26.421,130.239" id="link--lp-blue" fill="#206FAC" sketch:type="MSShapeGroup"></path>
        <path d="M28.551,87.793 L24.706,83.948 C24.094,83.335 23.282,83 22.417,83 C21.551,83 20.741,83.335 20.128,83.948 L14.421,89.655 C13.159,90.918 13.159,92.971 14.421,94.233 L15.143,94.957 L14.454,95.645 L13.733,94.92 C13.12,94.308 12.309,93.973 11.444,93.973 C10.579,93.973 9.768,94.308 9.155,94.92 L3.448,100.627 C2.835,101.241 2.5,102.051 2.5,102.916 C2.5,103.781 2.835,104.596 3.448,105.205 L7.294,109.051 C7.905,109.662 8.717,110 9.581,110 C10.446,110 11.258,109.662 11.87,109.051 L17.579,103.344 C18.841,102.082 18.841,100.03 17.579,98.766 L16.942,98.129 L17.629,97.444 L18.266,98.078 C18.878,98.69 19.69,99.028 20.553,99.028 C21.42,99.028 22.231,98.69 22.844,98.078 L28.551,92.37 C29.163,91.76 29.5,90.946 29.5,90.08 C29.5,89.217 29.163,88.405 28.551,87.793 C28.551,87.793 29.163,88.405 28.551,87.793 L28.551,87.793 L28.551,87.793 Z M15.448,100.896 C15.536,100.985 15.536,101.127 15.448,101.212 L9.739,106.92 C9.684,106.975 9.624,106.989 9.581,106.989 C9.54,106.989 9.477,106.975 9.423,106.92 L5.577,103.078 C5.522,103.022 5.511,102.959 5.511,102.916 C5.511,102.875 5.522,102.815 5.577,102.758 L11.286,97.05 C11.339,96.995 11.403,96.985 11.444,96.985 C11.485,96.985 11.547,96.995 11.602,97.05 L12.325,97.772 L8.747,101.352 C8.098,101.996 8.098,103.045 8.747,103.693 L8.891,103.838 C9.539,104.484 10.585,104.484 11.233,103.838 L14.811,100.258 L15.448,100.896 L15.448,100.896 L15.448,100.896 L15.448,100.896 Z M26.421,90.239 L20.712,95.948 C20.659,96.002 20.596,96.016 20.553,96.016 C20.512,96.016 20.45,96.002 20.395,95.948 L19.758,95.313 L23.167,91.907 C23.811,91.258 23.811,90.211 23.167,89.565 L23.02,89.42 C22.374,88.771 21.326,88.771 20.68,89.42 L17.272,92.826 L16.551,92.104 C16.463,92.016 16.463,91.873 16.551,91.785 L22.258,86.078 C22.313,86.023 22.376,86.012 22.417,86.012 C22.46,86.012 22.521,86.023 22.575,86.078 L26.421,89.922 C26.475,89.978 26.487,90.039 26.487,90.08 C26.487,90.123 26.475,90.186 26.421,90.239 L26.421,90.239 Z M26.421,90.239" id="link--white" fill="#FFFFFF" sketch:type="MSShapeGroup"></path>
        <path d="M28.551,47.793 L24.706,43.948 C24.094,43.335 23.282,43 22.417,43 C21.551,43 20.741,43.335 20.128,43.948 L14.421,49.655 C13.159,50.918 13.159,52.971 14.421,54.233 L15.143,54.957 L14.454,55.645 L13.733,54.92 C13.12,54.308 12.309,53.973 11.444,53.973 C10.579,53.973 9.768,54.308 9.155,54.92 L3.448,60.627 C2.835,61.241 2.5,62.051 2.5,62.916 C2.5,63.781 2.835,64.596 3.448,65.205 L7.294,69.051 C7.905,69.662 8.717,70 9.581,70 C10.446,70 11.258,69.662 11.87,69.051 L17.579,63.344 C18.841,62.082 18.841,60.03 17.579,58.766 L16.942,58.129 L17.629,57.444 L18.266,58.078 C18.878,58.69 19.69,59.028 20.553,59.028 C21.42,59.028 22.231,58.69 22.844,58.078 L28.551,52.37 C29.163,51.76 29.5,50.946 29.5,50.08 C29.5,49.217 29.163,48.405 28.551,47.793 C28.551,47.793 29.163,48.405 28.551,47.793 L28.551,47.793 L28.551,47.793 Z M15.448,60.896 C15.536,60.985 15.536,61.127 15.448,61.212 L9.739,66.92 C9.684,66.975 9.624,66.989 9.581,66.989 C9.54,66.989 9.477,66.975 9.423,66.92 L5.577,63.078 C5.522,63.022 5.511,62.959 5.511,62.916 C5.511,62.875 5.522,62.815 5.577,62.758 L11.286,57.05 C11.339,56.995 11.403,56.985 11.444,56.985 C11.485,56.985 11.547,56.995 11.602,57.05 L12.325,57.772 L8.747,61.352 C8.098,61.996 8.098,63.045 8.747,63.693 L8.891,63.838 C9.539,64.484 10.585,64.484 11.233,63.838 L14.811,60.258 L15.448,60.896 L15.448,60.896 L15.448,60.896 L15.448,60.896 Z M26.421,50.239 L20.712,55.948 C20.659,56.002 20.596,56.016 20.553,56.016 C20.512,56.016 20.45,56.002 20.395,55.948 L19.758,55.313 L23.167,51.907 C23.811,51.258 23.811,50.211 23.167,49.565 L23.02,49.42 C22.374,48.771 21.326,48.771 20.68,49.42 L17.272,52.826 L16.551,52.104 C16.463,52.016 16.463,51.873 16.551,51.785 L22.258,46.078 C22.313,46.023 22.376,46.012 22.417,46.012 C22.46,46.012 22.521,46.023 22.575,46.078 L26.421,49.922 C26.475,49.978 26.487,50.039 26.487,50.08 C26.487,50.123 26.475,50.186 26.421,50.239 L26.421,50.239 Z M26.421,50.239" id="link--body-grey" fill="#67737B" sketch:type="MSShapeGroup"></path>
        <path d="M28.551,7.793 L24.706,3.948 C24.094,3.335 23.282,3 22.417,3 C21.551,3 20.741,3.335 20.128,3.948 L14.421,9.655 C13.159,10.918 13.159,12.971 14.421,14.233 L15.143,14.957 L14.454,15.645 L13.733,14.92 C13.12,14.308 12.309,13.973 11.444,13.973 C10.579,13.973 9.768,14.308 9.155,14.92 L3.448,20.627 C2.835,21.241 2.5,22.051 2.5,22.916 C2.5,23.781 2.835,24.596 3.448,25.205 L7.294,29.051 C7.905,29.662 8.717,30 9.581,30 C10.446,30 11.258,29.662 11.87,29.051 L17.579,23.344 C18.841,22.082 18.841,20.03 17.579,18.766 L16.942,18.129 L17.629,17.444 L18.266,18.078 C18.878,18.69 19.69,19.028 20.553,19.028 C21.42,19.028 22.231,18.69 22.844,18.078 L28.551,12.37 C29.163,11.76 29.5,10.946 29.5,10.08 C29.5,9.217 29.163,8.405 28.551,7.793 C28.551,7.793 29.163,8.405 28.551,7.793 L28.551,7.793 L28.551,7.793 Z M15.448,20.896 C15.536,20.985 15.536,21.127 15.448,21.212 L9.739,26.92 C9.684,26.975 9.624,26.989 9.581,26.989 C9.54,26.989 9.477,26.975 9.423,26.92 L5.577,23.078 C5.522,23.022 5.511,22.959 5.511,22.916 C5.511,22.875 5.522,22.815 5.577,22.758 L11.286,17.05 C11.339,16.995 11.403,16.985 11.444,16.985 C11.485,16.985 11.547,16.995 11.602,17.05 L12.325,17.772 L8.747,21.352 C8.098,21.996 8.098,23.045 8.747,23.693 L8.891,23.838 C9.539,24.484 10.585,24.484 11.233,23.838 L14.811,20.258 L15.448,20.896 L15.448,20.896 L15.448,20.896 L15.448,20.896 Z M26.421,10.239 L20.712,15.948 C20.659,16.002 20.596,16.016 20.553,16.016 C20.512,16.016 20.45,16.002 20.395,15.948 L19.758,15.313 L23.167,11.907 C23.811,11.258 23.811,10.211 23.167,9.565 L23.02,9.42 C22.374,8.771 21.326,8.771 20.68,9.42 L17.272,12.826 L16.551,12.104 C16.463,12.016 16.463,11.873 16.551,11.785 L22.258,6.078 C22.313,6.023 22.376,6.012 22.417,6.012 C22.46,6.012 22.521,6.023 22.575,6.078 L26.421,9.922 C26.475,9.978 26.487,10.039 26.487,10.08 C26.487,10.123 26.475,10.186 26.421,10.239 L26.421,10.239 Z M26.421,10.239" id="link--title-grey" fill="#3A434E" sketch:type="MSShapeGroup"></path>
    </g>
</svg>
